src/game/GamePart/Arena/Field/PlayersLayer/img/opp-1.svg

<svg width="40" height="40" viewBox="0 0 40 40" fill="none" xmlns="http://www.w3.org/2000/svg">
<g clip-path="url(#clip0)">
<path d="M32.2358 27.5551C32.2358 20.7499 26.7193 15.2334 19.9141 15.2334C13.1093 15.2334 7.59277 20.7499 7.59277 27.5551C7.59277 34.3603 13.1093 35.7696 19.9141 35.7696C26.7193 35.7696 32.2358 34.3603 32.2358 27.5551Z" fill="#FF927D"/>
<path d="M32.2357 27.5552H32.8581C32.8574 20.406 27.0631 14.6114 19.914 14.6111C12.7652 14.6114 6.97057 20.406 6.97022 27.5552C6.9695 29.3388 7.33378 30.8194 8.02103 32.0187C8.53486 32.9175 9.22745 33.6503 10.0465 34.23C11.2767 35.1007 12.7819 35.6345 14.4545 35.9578C16.1281 36.28 17.9758 36.3919 19.914 36.3919C23.3588 36.3876 26.5222 36.0493 28.9223 34.762C30.1194 34.1175 31.1218 33.2188 31.8073 32.0187C32.4945 30.8194 32.8584 29.3388 32.8581 27.5552H31.6132C31.6125 29.174 31.2874 30.4213 30.7273 31.4002C30.306 32.1352 29.7498 32.7267 29.0622 33.2145C28.0324 33.9452 26.6974 34.4352 25.1381 34.7353C23.5799 35.0362 21.8037 35.1477 19.914 35.1473C16.5536 35.1516 13.556 34.7852 11.4968 33.6664C10.4645 33.1077 9.66259 32.3788 9.10068 31.4002C8.54092 30.421 8.21545 29.1736 8.21474 27.5548C8.2151 24.3223 9.52336 21.4013 11.6414 19.2822C13.7604 17.1642 16.6814 15.856 19.914 15.8556C23.1465 15.856 26.0675 17.1642 28.1866 19.2822C30.305 21.4013 31.6129 24.3223 31.6132 27.5548H32.2357V27.5552Z" fill="#54596E"/>
<path d="M19.2912 23.9455C19.2912 26.0079 17.6198 27.6794 15.5577 27.6794C13.4956 27.6794 11.8237 26.0079 11.8237 23.9455C11.8237 21.8834 13.4956 20.2119 15.5577 20.2119C17.6198 20.2119 19.2912 21.8834 19.2912 23.9455Z" fill="white"/>
<path d="M19.2911 23.9454H19.9135C19.9132 21.5396 17.9633 19.5897 15.5575 19.5894C13.1515 19.5897 11.2019 21.5396 11.2012 23.9454C11.2019 26.3514 13.1515 28.3014 15.5575 28.3017C17.9633 28.3014 19.9132 26.3514 19.9135 23.9454H18.669C18.6687 24.8067 18.3218 25.5805 17.7574 26.1456C17.1927 26.7097 16.4186 27.0569 15.5575 27.0572C14.6962 27.0569 13.9224 26.7097 13.3573 26.1456C12.7932 25.5805 12.4461 24.8067 12.4461 23.9454C12.4461 23.0843 12.7932 22.3106 13.3573 21.7455C13.9224 21.1814 14.6962 20.8342 15.5575 20.8339C16.4186 20.8342 17.1927 21.1814 17.7574 21.7455C18.3218 22.3106 18.6687 23.0843 18.669 23.9454H19.2911Z" fill="#54596E"/>
<path d="M28.0041 23.9455C28.0041 26.0079 26.3326 27.6794 24.2702 27.6794C22.2081 27.6794 20.5366 26.0079 20.5366 23.9455C20.5366 21.8834 22.2081 20.2119 24.2702 20.2119C26.3326 20.2119 28.0041 21.8834 28.0041 23.9455Z" fill="white"/>
<path d="M28.0035 23.9454H28.626C28.6252 21.5396 26.6757 19.5897 24.2696 19.5894C21.8639 19.5897 19.9139 21.5396 19.9136 23.9454C19.9139 26.3514 21.8639 28.3014 24.2696 28.3017C26.6757 28.3014 28.6252 26.3514 28.626 23.9454H27.3814C27.3811 24.8067 27.0339 25.5805 26.4698 26.1456C25.9047 26.7097 25.131 27.0569 24.2696 27.0572C23.4086 27.0569 22.6348 26.7097 22.0697 26.1456C21.5053 25.5805 21.1585 24.8067 21.1581 23.9454C21.1585 23.0843 21.5053 22.3106 22.0697 21.7455C22.6348 21.1814 23.4086 20.8342 24.2696 20.8339C25.131 20.8342 25.9047 21.1814 26.4698 21.7455C27.0339 22.3106 27.3811 23.0843 27.3814 23.9454H28.0035Z" fill="#54596E"/>
<path d="M1.08074 28.1005L1.08145 28.0998C1.11777 28.0607 1.65546 27.502 2.5966 26.9621C3.53952 26.4216 4.87663 25.9003 6.54383 25.9003C6.83653 25.9003 7.13956 25.9163 7.45256 25.9512C7.79405 25.9897 8.10206 25.744 8.14016 25.4025C8.17862 25.061 7.93256 24.753 7.59108 24.7145C7.23107 24.6743 6.88175 24.6558 6.54383 24.6558C4.5501 24.6558 2.9591 25.301 1.87339 25.943C0.786256 26.5861 0.193728 27.2267 0.164172 27.2584C-0.0683524 27.5112 -0.0519724 27.9051 0.201205 28.1376C0.454383 28.3701 0.848215 28.3537 1.08074 28.1005Z" fill="#54596E"/>
<path d="M1.58067 32.5305L1.37948 32.423L1.57996 32.5319L1.58067 32.5305L1.37948 32.423L1.57996 32.5319C1.58495 32.522 2.02044 31.7282 2.94021 30.8825C3.86212 30.0354 5.25229 29.137 7.21361 28.8571C7.55403 28.8083 7.79047 28.4936 7.74205 28.1531C7.69326 27.8127 7.37848 27.5763 7.03806 27.6247C4.74522 27.9509 3.10152 29.0266 2.04715 30.0133C0.990281 31.0018 0.506003 31.9031 0.483213 31.944C0.321194 32.2471 0.435854 32.6242 0.738884 32.7862C1.04191 32.9478 1.41901 32.8335 1.58067 32.5305Z" fill="#54596E"/>
<path d="M3.63397 36.2817L3.40322 36.2383L3.63361 36.2835L3.63397 36.2817L3.40322 36.2383L3.63361 36.2835C3.63503 36.2721 3.81343 35.3847 4.4373 34.3026C5.06366 33.2179 6.12088 31.9446 7.90843 31.09C8.21859 30.9418 8.34963 30.5704 8.20149 30.2603C8.05336 29.9501 7.68196 29.8191 7.37181 29.9672C5.28194 30.965 4.03563 32.4833 3.32524 33.7407C2.61271 35.0002 2.42007 36.005 2.41081 36.051C2.34707 36.3885 2.56927 36.7144 2.90684 36.7777C3.24476 36.8415 3.57023 36.6196 3.63397 36.2817Z" fill="#54596E"/>
<path d="M39.8359 27.258C39.8064 27.2267 39.2138 26.5861 38.1267 25.9427C37.041 25.301 35.45 24.6554 33.4563 24.6558C33.1183 24.6558 32.769 24.6739 32.409 24.7145C32.0675 24.753 31.8215 25.0606 31.8599 25.4025C31.898 25.744 32.206 25.9897 32.5475 25.9512C32.8609 25.9163 33.1636 25.9003 33.4563 25.9003C35.1772 25.9003 36.5471 26.4554 37.4936 27.0145C37.9657 27.2933 38.33 27.5725 38.5718 27.7783C38.6929 27.8812 38.7837 27.9659 38.8421 28.0226L38.9055 28.0856L38.9186 28.0995L38.9193 28.1002C39.1522 28.3534 39.5457 28.3701 39.7989 28.1372C40.0521 27.9051 40.0684 27.5112 39.8359 27.258Z" fill="#54596E"/>
<path d="M39.5169 31.944C39.4942 31.9027 39.0095 31.0015 37.9527 30.0133C36.8983 29.0263 35.2549 27.9509 32.9617 27.6247C32.6217 27.5763 32.3065 27.8127 32.2577 28.1531C32.2093 28.4932 32.4461 28.8083 32.7862 28.8571C34.7785 29.1416 36.1818 30.0642 37.103 30.9228C37.5624 31.3515 37.8971 31.7631 38.114 32.0633C38.2226 32.2132 38.3016 32.3354 38.3522 32.4173L38.4067 32.5084L38.4181 32.5287L38.4198 32.5319L38.6203 32.4226L38.4191 32.5302L38.4198 32.5319L38.6203 32.4226L38.4191 32.5302C38.5811 32.8332 38.9579 32.9478 39.2609 32.7862C39.5639 32.6242 39.6786 32.2471 39.5169 31.944Z" fill="#54596E"/>
<path d="M37.589 36.0508C37.5798 36.0045 37.3875 34.9996 36.6753 33.7401C35.9646 32.4831 34.7186 30.9644 32.6284 29.9667C32.3182 29.8185 31.9468 29.9499 31.7987 30.2601C31.6506 30.5702 31.782 30.9416 32.0918 31.0898C33.9074 31.9579 34.9704 33.2583 35.5921 34.3537C35.9015 34.9002 36.0981 35.3934 36.2152 35.7445C36.2736 35.9201 36.3125 36.06 36.3363 36.1533L36.3609 36.2569L36.3655 36.2794L36.3662 36.2829L36.5941 36.2384L36.3659 36.2815L36.3662 36.2829L36.5941 36.2384L36.3659 36.2815C36.4296 36.6191 36.7551 36.8413 37.093 36.7775C37.4306 36.7138 37.6528 36.3883 37.589 36.0508Z" fill="#54596E"/>
<path d="M16.8024 23.9455C16.8024 24.6331 16.2451 25.1903 15.5579 25.1903C14.8703 25.1903 14.313 24.6331 14.313 23.9455C14.313 23.2582 14.8703 22.7009 15.5579 22.7009C16.2451 22.7009 16.8024 23.2582 16.8024 23.9455Z" fill="#55A6FF"/>
<path d="M25.5148 23.9455C25.5148 24.6331 24.9575 25.1903 24.2699 25.1903C23.5827 25.1903 23.0254 24.6331 23.0254 23.9455C23.0254 23.2582 23.5827 22.7009 24.2699 22.7009C24.9575 22.7009 25.5148 23.2582 25.5148 23.9455Z" fill="#55A6FF"/>
<path d="M8.71248 10.877C8.71248 10.877 10.9088 6.1186 11.7955 4.19679C9.71451 3.18017 6.69275 4.7295 4.94009 7.7655C3.13544 10.8909 3.36156 14.3994 5.44538 15.6023C7.52884 16.8055 10.6806 15.2469 12.4849 12.1219C13.082 11.0878 13.4516 10.0135 13.6101 8.99329L8.71248 10.877Z" fill="#FF927D"/>
<path d="M8.71261 10.877L9.27772 11.138C9.27772 11.138 11.4737 6.3793 12.3607 4.4575C12.5024 4.15055 12.3728 3.78592 12.0691 3.63743C11.5471 3.38212 10.9777 3.26283 10.4012 3.26318C9.29552 3.26496 8.16602 3.688 7.12873 4.41299C6.09074 5.13976 5.13963 6.17598 4.40111 7.45433C3.53368 8.9588 3.10068 10.5509 3.09961 11.9991C3.09961 12.8733 3.25807 13.698 3.59208 14.4158C3.92502 15.1326 4.44313 15.743 5.13393 16.1411C5.71222 16.4758 6.36065 16.6318 7.01692 16.6307C8.124 16.6289 9.25457 16.2045 10.2936 15.478C11.3323 14.7495 12.2849 13.7118 13.0238 12.4328C13.6583 11.3335 14.0543 10.1884 14.2252 9.08877C14.2594 8.86906 14.1739 8.64829 14.0012 8.5087C13.8282 8.36912 13.5942 8.33244 13.387 8.4122L8.48899 10.2963L8.71261 10.877L9.27772 11.138L8.71261 10.877L8.93588 11.4578L13.8339 9.57411L13.6102 8.99334L12.9953 8.89755C12.8493 9.83833 12.5053 10.8421 11.9459 11.8103C11.2939 12.9402 10.4553 13.8457 9.57932 14.4589C8.70335 15.0739 7.79568 15.3883 7.01692 15.3865C6.55223 15.3855 6.13347 15.2804 5.75637 15.0636C5.30806 14.8033 4.96444 14.4112 4.72016 13.8899C4.47731 13.37 4.34378 12.7223 4.34378 11.9991C4.34271 10.8012 4.71126 9.4039 5.47898 8.07677C6.13027 6.94762 6.96778 6.04387 7.84198 5.43247C8.71653 4.81928 9.62312 4.50593 10.4008 4.50771C10.8089 4.50806 11.1824 4.58996 11.5225 4.7559L11.7956 4.19684L11.2305 3.93619C10.7868 4.89691 10.0162 6.56732 9.35641 7.997C8.69623 9.42669 8.14714 10.6164 8.14714 10.6164C8.04103 10.8464 8.08483 11.1178 8.25824 11.3026C8.43166 11.4877 8.69908 11.549 8.93588 11.4582L8.71261 10.877Z" fill="#54596E"/>
<path d="M5.31631 15.5538C5.2953 15.5741 5.04034 15.812 4.77327 16.1987C4.51155 16.5858 4.21457 17.1263 4.20852 17.8022C4.20674 18.1551 4.30395 18.5414 4.52971 18.8893C4.87013 19.4153 5.45304 19.8333 6.31299 20.1541C7.17722 20.475 8.33949 20.7089 9.92941 20.8321C10.272 20.8585 10.5714 20.6021 10.5978 20.2595C10.6241 19.917 10.3678 19.6179 10.0252 19.5915C8.0069 19.4384 6.79407 19.0844 6.16059 18.7191C5.84189 18.5371 5.67026 18.3619 5.57661 18.2163C5.48402 18.0692 5.45518 17.946 5.4534 17.8022C5.44735 17.5344 5.60581 17.1787 5.79845 16.9045C5.89281 16.7677 5.98967 16.652 6.06053 16.5737L6.14385 16.4854L6.16379 16.4654L6.16735 16.4622L6.01815 16.3055L6.16593 16.4636L6.16735 16.4622L6.01815 16.3055L6.16593 16.4636C6.41697 16.229 6.43015 15.8352 6.19584 15.5841C5.96118 15.3327 5.56735 15.3195 5.31631 15.5538Z" fill="#54596E"/>
<path d="M31.0226 10.877C31.0226 10.877 28.8266 6.1186 27.9396 4.19679C30.0209 3.18017 33.0427 4.7295 34.795 7.7655C36.6 10.8909 36.3735 14.3994 34.2897 15.6023C32.2063 16.8055 29.0545 15.2469 27.2502 12.1219C26.6534 11.0878 26.2835 10.0135 26.125 8.99329L31.0226 10.877Z" fill="#FF927D"/>
<path d="M31.0225 10.8772L31.5876 10.6165C31.5876 10.6165 29.3916 5.85812 28.5042 3.93596L27.9391 4.19698L28.2126 4.75603C28.5526 4.5901 28.9262 4.50855 29.3339 4.50784C30.1123 4.50606 31.0185 4.81942 31.8931 5.4326C32.7673 6.044 33.6048 6.94775 34.2561 8.0769C35.0235 9.40403 35.392 10.8013 35.3909 11.9992C35.3913 12.7224 35.2574 13.3701 35.0146 13.89C34.7703 14.4113 34.4267 14.8034 33.9783 15.0637H33.9787C33.6016 15.2805 33.1825 15.3856 32.7178 15.3867C31.9394 15.3884 31.0314 15.0737 30.1554 14.459C29.2798 13.8459 28.4408 12.9403 27.7892 11.8108C27.2298 10.8423 26.8858 9.83846 26.7395 8.89768L26.1245 8.99347L25.9012 9.57424L30.7992 11.4579C31.0356 11.5491 31.3034 11.4879 31.4765 11.3027C31.6499 11.1175 31.6937 10.8465 31.5876 10.6165L31.0225 10.8772L31.2461 10.2964L26.3481 8.41269C26.1405 8.33293 25.9069 8.3696 25.7339 8.50919C25.5608 8.64877 25.4757 8.86919 25.5099 9.0889C25.6808 10.1888 26.0768 11.334 26.7113 12.4333C27.4506 13.7123 28.4024 14.7503 29.4414 15.4785C30.4801 16.2049 31.6111 16.6294 32.7178 16.6315C33.3744 16.6322 34.0229 16.4763 34.6008 16.1419H34.6011C35.2923 15.7438 35.8104 15.1331 36.143 14.4163C36.477 13.6988 36.6355 12.8737 36.6358 11.9999C36.6344 10.5513 36.2018 8.95928 35.334 7.45481C34.5954 6.17646 33.6443 5.14025 32.6067 4.41348C31.5691 3.68848 30.4399 3.26581 29.3339 3.26367C28.7574 3.26332 28.188 3.38261 27.666 3.63792C27.3622 3.78641 27.2326 4.15104 27.374 4.45799C27.8177 5.41871 28.5886 7.08911 29.2484 8.5188C29.9086 9.94849 30.4574 11.1382 30.4574 11.1382L31.0225 10.8772L31.2461 10.2964L31.0225 10.8772Z" fill="#54596E"/>
<path d="M34.1919 16.4638L34.3393 16.3057L34.1905 16.4624L34.1919 16.4638L34.3393 16.3057L34.1905 16.4624C34.1958 16.467 34.3952 16.6604 34.5765 16.9307C34.7623 17.2009 34.9094 17.5431 34.9041 17.8024C34.9023 17.9462 34.8734 18.0694 34.7809 18.2165C34.6438 18.433 34.3165 18.725 33.6097 18.9881C32.9071 19.2506 31.846 19.4753 30.3323 19.5913C29.9897 19.618 29.7333 19.9172 29.7597 20.2597C29.786 20.6026 30.0851 20.859 30.428 20.8323C32.5475 20.666 33.9084 20.3117 34.8133 19.8004C35.2641 19.544 35.6031 19.2388 35.8278 18.8895C36.0535 18.5416 36.1507 18.1552 36.1489 17.8024C36.1429 17.1265 35.8463 16.586 35.5842 16.1989C35.3175 15.8125 35.0625 15.5743 35.0415 15.554C34.7901 15.3194 34.3963 15.3329 34.1616 15.5839C33.927 15.8353 33.9405 16.2292 34.1919 16.4638Z" fill="#54596E"/>
<path d="M12.9222 29.8999C14.5331 32.1169 17.1525 33.5605 20.1041 33.5601C23.0407 33.5605 25.648 32.1319 27.2611 29.9341C27.4644 29.6571 27.4046 29.2675 27.1275 29.0642C26.8505 28.8609 26.4609 28.9203 26.2576 29.1977C24.8671 31.0896 22.6312 32.3156 20.1041 32.3156C17.5641 32.3156 15.3176 31.0764 13.9292 29.1682C13.7269 28.8901 13.3377 28.8285 13.0596 29.0307C12.7815 29.2326 12.7203 29.6218 12.9222 29.8999Z" fill="#54596E"/>
</g>
<defs>
<clipPath id="clip0">
<rect width="40" height="40" fill="white"/>
</clipPath>
</defs>
</svg>

<svg width="40" height="40" fill="none" xmlns="http://www.w3.org/2000/svg"><g clip-path="url(#clip0)"><path d="M32.236 27.555c0-6.805-5.517-12.322-12.322-12.322-6.805 0-12.321 5.517-12.321 12.322 0 6.805 5.516 8.215 12.321 8.215s12.322-1.41 12.322-8.215z" fill="#FF927D"/><path d="M32.236 27.555h.622c0-7.149-5.795-12.944-12.944-12.944-7.149 0-12.943 5.795-12.944 12.944 0 1.784.364 3.264 1.051 4.464a6.885 6.885 0 0 0 2.025 2.211c1.23.87 2.736 1.405 4.409 1.728 1.673.322 3.52.434 5.459.434 3.445-.004 6.608-.343 9.008-1.63 1.197-.645 2.2-1.543 2.885-2.743.688-1.2 1.051-2.68 1.051-4.464h-1.245c0 1.619-.326 2.866-.886 3.845a5.631 5.631 0 0 1-1.665 1.815c-1.03.73-2.365 1.22-3.924 1.52-1.558.301-3.334.413-5.224.412-3.36.005-6.358-.362-8.417-1.48-1.033-.56-1.834-1.288-2.396-2.267-.56-.979-.886-2.226-.886-3.845a11.66 11.66 0 0 1 3.426-8.273 11.66 11.66 0 0 1 8.273-3.426 11.66 11.66 0 0 1 8.273 3.426 11.659 11.659 0 0 1 3.426 8.273h.623z" fill="#54596E"/><path d="M19.291 23.945a3.733 3.733 0 1 1-7.467.001 3.733 3.733 0 0 1 7.467 0z" fill="#fff"/><path d="M19.291 23.945h.622a4.356 4.356 0 1 0-8.712.001 4.356 4.356 0 0 0 8.712 0H18.67c0 .86-.347 1.634-.912 2.2a3.098 3.098 0 0 1-2.2.911 3.099 3.099 0 0 1-2.2-.911 3.097 3.097 0 0 1-.91-2.2c0-.862.346-1.635.91-2.2a3.099 3.099 0 0 1 2.2-.912c.862 0 1.636.347 2.2.912.565.565.912 1.338.912 2.2h.622z" fill="#54596E"/><path d="M28.004 23.945a3.734 3.734 0 1 1-7.467.001 3.734 3.734 0 0 1 7.467 0z" fill="#fff"/><path d="M28.003 23.945h.623a4.357 4.357 0 1 0-8.714.002 4.357 4.357 0 0 0 8.714-.002h-1.245c0 .862-.347 1.636-.911 2.2a3.099 3.099 0 0 1-2.2.912 3.099 3.099 0 0 1-2.2-.911 3.098 3.098 0 0 1-.912-2.2c0-.862.347-1.635.912-2.2a3.099 3.099 0 0 1 2.2-.912c.861 0 1.635.347 2.2.912.564.565.911 1.338.911 2.2h.622zM1.08 28.1h.001c.037-.04.574-.598 1.516-1.138a7.897 7.897 0 0 1 4.856-1.01.622.622 0 1 0 .138-1.238 9.152 9.152 0 0 0-5.718 1.229c-1.087.643-1.68 1.284-1.709 1.315a.622.622 0 1 0 .917.843zM1.58 32.53l-.2-.107.2.109v-.001l-.2-.108.2.109c.005-.01.44-.804 1.36-1.65a7.873 7.873 0 0 1 4.274-2.025.622.622 0 0 0-.176-1.232 9.13 9.13 0 0 0-4.99 2.388C.99 31.002.505 31.903.482 31.944a.622.622 0 0 0 1.098.587zM3.634 36.282l-.23-.044.23.045v-.001l-.23-.044.23.045c.001-.01.18-.898.803-1.98a7.876 7.876 0 0 1 3.471-3.213.622.622 0 1 0-.536-1.123 9.128 9.128 0 0 0-4.047 3.774c-.712 1.26-.905 2.264-.914 2.31a.622.622 0 1 0 1.223.23zM39.836 27.258c-.03-.031-.622-.672-1.71-1.315a9.15 9.15 0 0 0-5.717-1.229.622.622 0 0 0 .139 1.237 7.902 7.902 0 0 1 4.946 1.063c.472.28.836.559 1.078.764.12.103.212.188.27.245l.064.063.013.014a.622.622 0 1 0 .917-.842zM39.517 31.944c-.023-.041-.508-.942-1.564-1.93a9.127 9.127 0 0 0-4.991-2.39.623.623 0 0 0-.176 1.233 7.878 7.878 0 0 1 4.317 2.066c.46.429.794.84 1.011 1.14.109.15.188.272.238.354l.055.091.011.02.002.004.2-.11-.2.108v.002l.2-.11-.2.108a.623.623 0 0 0 1.097-.586zM37.589 36.05c-.01-.045-.201-1.05-.914-2.31a9.13 9.13 0 0 0-4.047-3.773.622.622 0 1 0-.536 1.123 7.877 7.877 0 0 1 3.5 3.264c.31.546.506 1.04.623 1.39.059.176.097.316.121.41l.025.103.005.022v.004l.228-.045-.228.044.228-.044-.228.044a.622.622 0 0 0 1.223-.231z" fill="#54596E"/><path d="M16.802 23.945a1.245 1.245 0 1 1-2.489 0 1.245 1.245 0 0 1 2.49 0zM25.515 23.945a1.245 1.245 0 1 1-2.49 0 1.245 1.245 0 0 1 2.49 0z" fill="#55A6FF"/><path d="M8.712 10.877l3.084-6.68C9.715 3.18 6.693 4.729 4.94 7.766c-1.805 3.125-1.578 6.633.505 7.836 2.084 1.203 5.236-.355 7.04-3.48a9.096 9.096 0 0 0 1.125-3.129l-4.898 1.884z" fill="#FF927D"/><path d="M8.713 10.877l.565.261 3.083-6.68a.623.623 0 0 0-.292-.82 3.775 3.775 0 0 0-1.668-.375c-1.105.002-2.235.425-3.272 1.15C6.09 5.14 5.139 6.176 4.4 7.454 3.534 8.96 3.101 10.551 3.1 12c0 .874.158 1.699.492 2.417.333.717.851 1.327 1.542 1.725.578.335 1.227.49 1.883.49 1.107-.002 2.238-.427 3.277-1.153 1.038-.729 1.99-1.766 2.73-3.045a9.715 9.715 0 0 0 1.201-3.344.623.623 0 0 0-.838-.677l-4.898 1.884.224.581.565.261-.565-.261.223.58 4.898-1.883-.224-.58-.615-.096a8.474 8.474 0 0 1-1.05 2.912c-.651 1.13-1.49 2.036-2.366 2.649-.876.615-1.783.93-2.562.928a2.488 2.488 0 0 1-1.26-.323c-.449-.26-.793-.653-1.037-1.174-.243-.52-.376-1.168-.376-1.89-.001-1.199.367-2.596 1.135-3.923.651-1.13 1.489-2.033 2.363-2.645.875-.613 1.781-.926 2.559-.924.408 0 .781.082 1.122.248l.273-.56-.566-.26-1.874 4.061-1.209 2.62a.622.622 0 0 0 .789.841l-.223-.581z" fill="#54596E"/><path d="M5.316 15.554c-.02.02-.276.258-.543.645-.261.387-.558.927-.564 1.603-.002.353.095.74.32 1.087.341.526.924.944 1.784 1.265.864.321 2.026.555 3.616.678a.622.622 0 0 0 .096-1.24c-2.018-.154-3.23-.508-3.864-.873-.32-.182-.49-.357-.584-.503a.737.737 0 0 1-.124-.414c-.006-.268.153-.623.345-.898a3.28 3.28 0 0 1 .263-.33l.083-.089.02-.02.003-.003-.149-.157.148.159.001-.002-.149-.157.148.159a.623.623 0 0 0-.85-.91z" fill="#54596E"/><path d="M31.023 10.877l-3.083-6.68c2.08-1.017 5.103.532 6.855 3.569 1.805 3.125 1.578 6.633-.505 7.836-2.084 1.203-5.235-.355-7.04-3.48a9.102 9.102 0 0 1-1.125-3.129l4.898 1.884z" fill="#FF927D"/><path d="M31.023 10.877l.565-.26-3.084-6.681-.565.261.274.559a2.53 2.53 0 0 1 1.12-.248c.78-.002 1.686.311 2.56.925.874.611 1.712 1.515 2.363 2.644.767 1.327 1.136 2.724 1.135 3.922 0 .723-.134 1.371-.376 1.891-.245.521-.588.913-1.037 1.174a2.49 2.49 0 0 1-1.26.323c-.779.001-1.687-.313-2.563-.928-.875-.613-1.714-1.519-2.366-2.648a8.485 8.485 0 0 1-1.05-2.913l-.614.095-.224.581 4.898 1.884a.62.62 0 0 0 .789-.841l-.566.26.224-.58-4.898-1.884a.622.622 0 0 0-.838.676c.17 1.1.567 2.245 1.201 3.344.74 1.28 1.691 2.317 2.73 3.046 1.04.726 2.17 1.15 3.277 1.152.656.001 1.305-.155 1.883-.49.691-.397 1.21-1.008 1.542-1.725.334-.717.492-1.542.493-2.416-.002-1.449-.434-3.04-1.302-4.545-.739-1.279-1.69-2.315-2.727-3.042-1.038-.725-2.167-1.147-3.273-1.15-.577 0-1.146.12-1.668.375a.623.623 0 0 0-.292.82 19780.829 19780.829 0 0 1 3.083 6.68l.566-.26.223-.582-.223.581z" fill="#54596E"/><path d="M34.192 16.464l.147-.158-.148.156v.002l.148-.158-.148.156c.005.005.204.198.386.469.185.27.332.612.327.871a.738.738 0 0 1-.123.415c-.137.216-.465.508-1.171.771-.703.263-1.764.487-3.278.603a.623.623 0 0 0 .096 1.241c2.12-.166 3.48-.52 4.385-1.032.451-.256.79-.561 1.015-.91.225-.348.323-.735.32-1.088-.005-.675-.302-1.216-.564-1.603-.267-.387-.522-.625-.543-.645a.623.623 0 0 0-.85.91zM12.922 29.9a8.863 8.863 0 0 0 7.182 3.66 8.862 8.862 0 0 0 7.157-3.626.622.622 0 0 0-1.003-.736 7.617 7.617 0 0 1-6.154 3.118 7.618 7.618 0 0 1-6.175-3.148.623.623 0 0 0-1.007.732z" fill="#54596E"/></g><defs><clipPath id="clip0"><path fill="#fff" d="M0 0h40v40H0z"/></clipPath></defs></svg>
